X: 9
T: No_18_Social_Dance_Song_(f).krn
N: Derived from No_18_Social_Dance_Song_(f).krn
%%abc-version 2.0
%%abcx-abcm2ps-target-version 5.9.1 (29 Sep 2008)
%%abc-creator hum2abc beta
%%abcx-conversion-date 2019/03/15 08:35:00
%%humdrum-veritas 789913464
%%humdrum-veritas-data 4255652305
%%linebreak <none>
%%barnumbers 0
L: 1/16
M: 2/4
K: Bb clef=bass
[K:clef=bass][M:2/4]F,2B,G, (F,2D,3/)F,/ | 
F,3/D,/D,3/E,/ D,2 z2 ]|:  
D,2B,3/G,/ (F,2D,3/)F,/ | 
F,3/D,/D,3/E,/ D,2 z2 | 
B,2B,B, B,3G, | 
F,2B,3/G,/ (F,2D,3/)D,/ | 
F,3/F,/D,3/E,/ D,2 z2 ||  
D,2B,3/G,/ (F,2D,3/)F,/ | 
F,3/D,/D,3/E,/ D,2 z2 :|]  



